resources/icons/16px/playbook.svg

<svg width="16" height="16" viewBox="0 0 16 16" fill="none" xmlns="http://www.w3.org/2000/svg">
<path d="M4.29289 0.292893C4.68342 -0.0976311 5.31658 -0.0976311 5.70711 0.292893C6.09763 0.683417 6.09763 1.31658 5.70711 1.70711L4.41421 3L5.70711 4.29289C6.09763 4.68342 6.09763 5.31658 5.70711 5.70711C5.31658 6.09763 4.68342 6.09763 4.29289 5.70711L3 4.41421L1.70711 5.70711C1.31658 6.09763 0.683418 6.09763 0.292893 5.70711C-0.0976311 5.31658 -0.0976311 4.68342 0.292893 4.29289L1.58579 3L0.292894 1.70711C-0.0976307 1.31658 -0.0976307 0.683417 0.292894 0.292893C0.683418 -0.0976311 1.31658 -0.0976311 1.70711 0.292893L3 1.58579L4.29289 0.292893Z" fill="black"/>
<path d="M14.29 4.71L13 3.41V6C13 7.65685 11.6569 9 10 9H4C3.44772 9 3 9.44772 3 10V15C3 15.5523 2.55228 16 2 16C1.44772 16 1 15.5523 1 15V10C1 8.34315 2.34315 7 4 7H10C10.5523 7 11 6.55228 11 6V3.41L9.71 4.7C9.53 4.89 9.28 5 9 5C8.45 5 8 4.55 8 4C8 3.72 8.11 3.47 8.29 3.29L11.29 0.29C11.47 0.11 11.72 1.49012e-08 12 1.49012e-08C12.28 1.49012e-08 12.53 0.11 12.71 0.29L15.71 3.29C15.89 3.47 16 3.72 16 4C16 4.55 15.55 5 15 5C14.72 5 14.47 4.89 14.29 4.71Z" fill="black"/>
<path fill-rule="evenodd" clip-rule="evenodd" d="M16 13C16 14.6569 14.6569 16 13 16C11.3431 16 10 14.6569 10 13C10 11.3431 11.3431 10 13 10C14.6569 10 16 11.3431 16 13ZM14 13C14 13.5523 13.5523 14 13 14C12.4477 14 12 13.5523 12 13C12 12.4477 12.4477 12 13 12C13.5523 12 14 12.4477 14 13Z" fill="black"/>
</svg>

<svg xmlns="http://www.w3.org/2000/svg" viewBox="0 0 16 16">
  <path d="M4.293.293a1 1 0 0 1 1.414 1.414L4.414 3l1.293 1.293a1 1 0 0 1-1.414 1.414L3 4.414 1.707 5.707A1 1 0 0 1 .293 4.293L1.586 3 .293 1.707A1 1 0 0 1 1.707.293L3 1.586z"/>
  <path d="M14.29 4.71 13 3.41V6a3 3 0 0 1-3 3H4a1 1 0 0 0-1 1v5a1 1 0 1 1-2 0v-5a3 3 0 0 1 3-3h6a1 1 0 0 0 1-1V3.41L9.71 4.7c-.18.19-.43.3-.71.3a1.003 1.003 0 0 1-.71-1.71l3-3c.18-.18.43-.29.71-.29s.53.11.71.29l3 3a1.003 1.003 0 0 1-1.42 1.42M16 13a3 3 0 1 1-6 0 3 3 0 0 1 6 0m-2 0a1 1 0 1 1-2 0 1 1 0 0 1 2 0"/>
</svg>
